X:2347
T:Grandmammy Look at Uncle Sam
O:england
M:4/4
L:1/8
Q:1/4=140
S:John Hartford "Wild Hog in the Redbrush" transcribed by Llarry Brandon
K:Am
P:A
|:.A,2 A,B, CA,CD|EDEF AB.c2|.A,2 A,B,CA, CE|GBAG EDCE|
.A,2 A,B, CA,CD|EDEF ABcd|egab a2 ea|^ fged cA A2:|
P:B
|:eg a2 a2 ab|aged g2 B2|Bdga bgag|edcd eg a2)|
a4 Aceg|a2 abag ed|g2B2 Bdga|bgag edcd|eg a2 a4:|
P:C once
"4"[A2A2] [Ac][AA] [AB]AAA|cABc ABAF|GFGA BGAG|EDCD EA A2|A4
z4|]


